src/assets/icons/Windows.svg

<svg width="30" height="30" viewBox="0 0 48 48" fill="none" xmlns="http://www.w3.org/2000/svg">
<path fill-rule="evenodd" clip-rule="evenodd" d="M0 24C0 10.7452 10.7452 0 24 0C37.2548 0 48 10.7452 48 24C48 37.2548 37.2548 48 24 48C10.7452 48 0 37.2548 0 24ZM12 15.4085L12.009 23.5892L21.8123 23.5334L21.808 14.0728L12 15.4085ZM21.8034 24.6234L12.0071 24.5599L12.0076 32.7445L21.811 34.0923L21.8034 24.6234ZM22.9923 13.898V23.5163L35.997 23.4131V12L22.9923 13.898ZM36 24.7125L22.9741 24.6912L22.9923 34.2387L35.9969 36.0742L36 24.7125Z" fill="currentColor"/>
</svg>

<svg width="30" height="30" viewBox="0 0 48 48" fill="none" xmlns="http://www.w3.org/2000/svg"><path fill-rule="evenodd" clip-rule="evenodd" d="M0 24C0 10.745 10.745 0 24 0s24 10.745 24 24-10.745 24-24 24S0 37.255 0 24zm12-8.591.009 8.18 9.803-.056-.004-9.46L12 15.408zm9.803 9.214-9.796-.063v8.185l9.804 1.347-.008-9.469zm1.19-10.725v9.618l13.004-.103V12l-13.005 1.898zM36 24.712l-13.026-.02.018 9.547 13.005 1.835L36 24.713z" fill="currentColor"/></svg>
